X:101
T:Bugle Horn, The
O:No 101 Wm Clarke MS  Feltwell, Norfolk
N:Dots on quavers absent throughout.
I:abc2nwc
M:2/4
L:1/16
K:D
d2|:a3g f3e|d4A4|B3g g3f|f4e4|a3g f3e|d4A4|B3g e3c|d4d4:|
|:d4A2f2|d4A2f2|d3A d3f|d4A4|a3g f3e|d4A4|B3g e3c|d4d4:|

